!!!COM: Bach, Johann Sebastian
!!!OPR: Joh. Seb. Bachs vierstimmige Choralges‰nge
!!!XEN: Four-part Chorales
!!!OTL: 132. Nun bitten wir den heiligen Geist
!!!SCT: BWV 385
!!!SCA: Thematisch-systematisches Verzeichnis der musikalischen Werke Johann Sebastian Bach: Bach-Werke-Verzeichnis (Schmieder)
!!!YOR: Bach Gesellschaft Edition xxxix
!!!ENC: Steven Rasmussen
!!!CDT: 1685/3//-1750/7/28/
!!!OCY: Deutschland
!!!YEC: Copyright (c) 1994, 2000 Center for Computer Assisted Research in the Humanities
!!!YEM: Rights to all derivative editions reserved
!!!YEN: United States of America
**kern	**silbe	**kern	**kern	**kern	**silbe
*I:[SOPRANO]	*I:[SOPRANO]	*I:[ALTO]	*I:[TENORE]	*I:[BASSO]	*I:[BASSO]
*clefG2	*	*clefG2	*clefGv2	*clefF4	*
*k[f#c#g#]	*	*k[f#c#g#]	*k[f#c#g#]	*k[f#c#g#]	*
*A:	*	*A:	*A:	*A:	*
*M4/4	*	*M4/4	*M4/4	*M4/4	*
4a	Nun	4e	4c#	4A	.
=1	=1	=1	=1	=1	=1
4b	bit-	4e	8BL	8G#L	.
.	.	.	8AJ	8F#J	.
4b	-ten	4e	4G#	8EL	.
.	.	.	.	8DJ	.
4a	wir	4e	4A	4C#	.
4f#	den	8dL	4A	[4D	den
.	.	8c#J	.	.	.
=2	=2	=2	=2	=2	=2
4e	hei-	4B	4G#	4D]	.
8f#L	.	8c#L	8AL	8C#L	hei-
8g#J	.	8dJ	8BJ	8BBJ	.
4a	-li-	4e	(8E	8C#L	-li-
.	.	.	4A)	8AAJ	.
4b	-gen	4e	.	4E	-gen
.	.	.	8G#	.	.
=3	=3	=3	=3	=3	=3
2.a;	Geist	2.e;	2.c#;	2.AA;	.
8cc#L	um	4a	[4e	4A	.
8ddJ	.	.	.	.	.
=4	=4	=4	=4	=4	=4
4ee	.	8bL	4e]	4G#	.
.	.	8cc#J	.	.	.
4ff#	den	8ddL	4A	4F#	.
.	.	8cc#J	.	.	.
4ee	rech-	4b	4B	4G#	.
4cc#	-ten	4a	8c#L	4A	.
.	.	.	8dJ	.	.
=5	=5	=5	=5	=5	=5
4a	Glau-	4a	4e	4C#	.
8f#L	-ben	4d	4A	8DL	.
8g#J	.	.	.	8EJ	.
4a	al-	4c#	4.A	8F#L	.
.	.	.	.	8AJ	.
4b	-ler	8f#L	.	8DL	.
.	.	8eJ	8G#	8EJ	.
=6	=6	=6	=6	=6	=6
2a;	meist,	2c#;	2E;	2AA;	.
4cc#	dass	4a	4e	8AL	.
.	.	.	.	8G#J	.
4cc#	er	4b	4g#	8F#L	.
.	.	.	.	8E#J	.
=7	=7	=7	=7	=7	=7
4cc#	uns	8aL	4f#	8F#L	.
.	.	8g#J	.	8EJ	.
4b	be-	4f#	8F#L	4D	.
.	.	.	8G#J	.	.
2cc#	-h√º-	4f#	4A	2C#	.
.	.	4e#	4G#	.	.
=8	=8	=8	=8	=8	=8
2a;	-te	2c#;	2F#;	2F#;	.
4r	.	4r	4r	4r	.
4a	an	4f#	4c#	4F#	.
=9	=9	=9	=9	=9	=9
4b	un-	4g#	4e	8EL	.
.	.	.	.	8DJ	.
4b	-serm	4g#	4e	8C#L	.
.	.	.	.	8BBJ	.
2cc#	En-	8aL	2e	2AA	.
.	.	8f#J	.	.	.
.	.	4gn	.	.	.
=10	=10	=10	=10	=10	=10
2a;	-de,	2f#;	2d;	2D;	.
4b	wenn	4f#	8dL	4BB	.
.	.	.	8c#J	.	.
4b	wir	4g#	4B	4E	.
=11	=11	=11	=11	=11	=11
8cc#L	heim-	8aL	8AL	4AA	.
8bJ	.	8g#J	8c#J	.	.
8aL	-fahr'n	8f#L	8dL	8BBL	.
8g#J	.	8eJ	8eJ	8C#J	.
4f#	aus	4d	4A	4D	.
4b	die-	4d	8G#L	4BB	.
.	.	.	8F#J	.	.
=12	=12	=12	=12	=12	=12
4b	-sem	8c#L	4E	4C#	.
.	.	8g#J	.	.	.
8aL	E-	8f#L	8F#L	8D#L	.
8g#J	.	8eJ	8G#J	8EJ	.
2f#	-len-	4e	4c#	4AA	.
.	.	4d#	8BL	4BB	.
.	.	.	8AJ	.	.
=13	=13	=13	=13	=13	=13
2e;	-de.	2B;	2G#;	2E;	.
4f#	Ky-	4d	4A	4D	.
4g#	-ri-	4d	4B	8C#L	.
.	.	.	.	8BBJ	.
=14	=14	=14	=14	=14	=14
4a	-e	4e	(8E	8C#L	.
.	.	.	4A)	8AAJ	.
4b	e-	8eL	.	4EE	.
.	.	8dJ	8G#	.	.
4a;	-leis'.	4c#;	4E;	4AA;	.
==|!	==|!	==|!	==|!	==|!	==|!
*-	*-	*-	*-	*-	*-
!!!RWG: Key is interpreted using the Humdrum key tool.
!!!END: 1994/07/19
!!!EMD: Converted from MuseData to Humdrum Dec 19, 2000, by Andreas Kornstaedt using muse2kern.
!!!EED: Craig Stuart Sapp
!!!EEV: 2024/03/31
!!!ONB: Some non-unicode characters
